coreui/free/cil-share.svg

<svg xmlns="http://www.w3.org/2000/svg" viewBox="0 0 512 512">
  <path fill="var(--ci-primary-color, currentColor)" d="M68.146,496H16V235.333a114.169,114.169,0,0,1,12.025-51.309A136.27,136.27,0,0,1,152,104H288.557V16h42.361L494.627,179.71,330.337,344h-41.78V256H199.745a85.4,85.4,0,0,0-81.993,62.244ZM152,136a104.217,104.217,0,0,0-94.923,61.443l-.292.614A82.454,82.454,0,0,0,48,235.333v213.81l38.93-139.5A117.5,117.5,0,0,1,199.745,224H320.557v84.525L449.373,179.71,320.557,50.894V136Z" class="ci-primary"/>
</svg>

<svg viewBox="0 0 512 512" xmlns="http://www.w3.org/2000/svg"><path d="M68.14 496H15.99V235.33h-.001c-.05-17.81 4.07-35.38 12.02-51.31l0-.001c22.05-48.68 70.53-79.97 123.97-80.024h136.55v-88h42.36l163.7 163.71 -164.29 164.29h-41.78v-88h-88.82v0c-38.17.09-71.65 25.5-81.993 62.24Zm83.85-360h-.001c-40.97.04-78.11 24.08-94.93 61.44l-.3.61v0c-5.82 11.56-8.83 24.33-8.79 37.27v213.81l38.93-139.5v0c14.23-50.56 60.29-85.52 112.81-85.65h120.81v84.52l128.81-128.815 -128.82-128.82v85.106Z"/></svg>
